packages/kaspersky-hexa-ui-icons/src/iconsSVGs/28x20/FlagAn.svg

<svg width="28" height="20" viewBox="0 0 28 20" fill="none" xmlns="http://www.w3.org/2000/svg">
<g clip-path="url(#clip0_5138_2271)">
<path d="M0 2C0 0.895431 0.895431 0 2 0H26C27.1046 0 28 0.895431 28 2V18C28 19.1046 27.1046 20 26 20H2C0.895431 20 0 19.1046 0 18V2Z" fill="white"/>
<mask id="mask0_5138_2271" style="mask-type:luminance" maskUnits="userSpaceOnUse" x="0" y="0" width="28" height="20">
<path d="M0 2C0 0.895431 0.895431 0 2 0H26C27.1046 0 28 0.895431 28 2V18C28 19.1046 27.1046 20 26 20H2C0.895431 20 0 19.1046 0 18V2Z" fill="white"/>
</mask>
<g mask="url(#mask0_5138_2271)">
<path d="M26 19.5V20H2V19.5H26ZM27.5 18V2C27.5 1.17157 26.8284 0.5 26 0.5H2C1.17157 0.5 0.5 1.17157 0.5 2V18C0.5 18.8284 1.17157 19.5 2 19.5V20C0.895431 20 0 19.1046 0 18V2C2.57702e-07 0.895431 0.895431 0 2 0H26C27.1046 0 28 0.895431 28 2V18C28 19.1046 27.1046 20 26 20V19.5C26.8284 19.5 27.5 18.8284 27.5 18Z" fill="#F5F5F5"/>
<rect x="10.6667" width="6.66667" height="20" fill="#D6182D"/>
<rect y="6.66669" width="28" height="6.66667" fill="#1425A2"/>
<path fill-rule="evenodd" clip-rule="evenodd" d="M11.3333 11.6667L10.8619 11.8048L11 11.3334L10.8619 10.8619L11.3333 11L11.8047 10.8619L11.6667 11.3334L11.8047 11.8048L11.3333 11.6667Z" fill="white"/>
<path fill-rule="evenodd" clip-rule="evenodd" d="M16.6667 11.6667L16.1953 11.8048L16.3333 11.3334L16.1953 10.8619L16.6667 11L17.1381 10.8619L17 11.3334L17.1381 11.8048L16.6667 11.6667Z" fill="white"/>
<path fill-rule="evenodd" clip-rule="evenodd" d="M8.66667 10.3333L8.19526 10.4714L8.33333 9.99998L8.19526 9.52858L8.66667 9.66665L9.13807 9.52858L9 9.99998L9.13807 10.4714L8.66667 10.3333Z" fill="white"/>
<path fill-rule="evenodd" clip-rule="evenodd" d="M19.3333 10.3333L18.8619 10.4714L19 9.99998L18.8619 9.52858L19.3333 9.66665L19.8047 9.52858L19.6667 9.99998L19.8047 10.4714L19.3333 10.3333Z" fill="white"/>
<path fill-rule="evenodd" clip-rule="evenodd" d="M14 9L13.5286 9.13807L13.6667 8.66667L13.5286 8.19526L14 8.33333L14.4714 8.19526L14.3333 8.66667L14.4714 9.13807L14 9Z" fill="white"/>
</g>
</g>
<defs>
<clipPath id="clip0_5138_2271">
<rect width="28" height="20" fill="white"/>
</clipPath>
</defs>
</svg>

<svg xmlns="http://www.w3.org/2000/svg" width="28" height="20" fill="none" viewBox="0 0 28 20"><g clip-path="url(#a)"><path fill="#fff" d="M0 2C0 .8954.8954 0 2 0h24c1.1046 0 2 .8954 2 2v16c0 1.1046-.8954 2-2 2H2c-1.1046 0-2-.8954-2-2z"/><mask id="b" width="28" height="20" x="0" y="0" maskUnits="userSpaceOnUse" style="mask-type:luminance"><path fill="#fff" d="M0 2C0 .8954.8954 0 2 0h24c1.1046 0 2 .8954 2 2v16c0 1.1046-.8954 2-2 2H2c-1.1046 0-2-.8954-2-2z"/></mask><g mask="url(#b)"><path fill="#f5f5f5" d="M26 19.5v.5H2v-.5zm1.5-1.5V2c0-.8284-.6716-1.5-1.5-1.5H2C1.1716.5.5 1.1716.5 2v16c0 .8284.6716 1.5 1.5 1.5v.5c-1.1046 0-2-.8954-2-2V2C0 .8954.8954 0 2 0h24c1.1046 0 2 .8954 2 2v16c0 1.1046-.8954 2-2 2v-.5c.8284 0 1.5-.6716 1.5-1.5"/><path fill="#d6182d" d="M10.6667 0h6.6667v20h-6.6667z"/><path fill="#1425a2" d="M0 6.6667h28v6.6667H0z"/><path fill="#fff" fill-rule="evenodd" d="m11.333 11.667-.471.138.138-.471-.138-.471.471.138.471-.138-.138.472.138.471zm5.334 0-.471.138.138-.471-.138-.471.471.138.471-.138-.138.472.138.471zm-8-1.334-.471.138.138-.471-.138-.471.471.138.471-.138L9 10l.138.471zm10.666 0-.471.138L19 10l-.138-.471.471.138.471-.138-.138.471.138.471zM14 9l-.471.138.138-.471-.138-.471.471.138.471-.138-.138.471.138.471z" clip-rule="evenodd"/></g></g><defs><clipPath id="a"><path fill="#fff" d="M0 0h28v20H0z"/></clipPath></defs></svg>
